elements/rpg-character/lib/faceItem/8.svg

<svg xmlns="http://www.w3.org/2000/svg" fill="none" width="113" height="142" viewBox="0 0 113 142"><path d="M78 72H63V57h15v15Zm-35 0H28V57h15v15Z" fill="#BCD7EA" fill-opacity=".5"/><path d="M43 64h20m0-.5V72h15v-8m-35-.5V72H28v-8" stroke="#C8BE9B"/></svg>

<svg width="113" height="142" viewBox="0 0 113 142" fill="none" xmlns="http://www.w3.org/2000/svg">
<path d="M78 72H63V57H78V72Z" fill="#BCD7EA" fill-opacity="0.5"/>
<path d="M43 72H28V57H43V72Z" fill="#BCD7EA" fill-opacity="0.5"/>
<path d="M43 64H63M63 63.5V72H78V64M43 63.5V72H28V64" stroke="#C8BE9B"/>
</svg>
